icons/svg/seamark/buoy_yellow_pillar.svg

<?xml version="1.0" encoding="UTF-8" standalone="no"?>
<svg
   xmlns:dc="http://purl.org/dc/elements/1.1/"
   xmlns:cc="http://creativecommons.org/ns#"
   xmlns:rdf="http://www.w3.org/1999/02/22-rdf-syntax-ns#"
   xmlns:svg="http://www.w3.org/2000/svg"
   xmlns="http://www.w3.org/2000/svg"
   xmlns:sodipodi="http://sodipodi.sourceforge.net/DTD/sodipodi-0.dtd"
   xmlns:inkscape="http://www.inkscape.org/namespaces/inkscape"
   width="580"
   height="580"
   id="svg2"
   version="1.1"
   inkscape:version="0.48.4 r9939"
   sodipodi:docname="buoy_yellow_pillar.svg">
  <defs
     id="defs13">
    <inkscape:path-effect
       effect="gears"
       id="path-effect3774"
       is_visible="true"
       teeth="6"
       phi="-1.2" />
    <inkscape:path-effect
       effect="bend_path"
       id="path-effect3772"
       is_visible="false"
       bendpath="m 95.790098,316.51174 c 144.429032,-206.42506 223.313032,-11.7428 339.548092,0"
       prop_scale="1.19"
       scale_y_rel="false"
       vertical="false"
       bendpath-nodetypes="cc" />
  </defs>
  <sodipodi:namedview
     pagecolor="#ffffff"
     bordercolor="#666666"
     borderopacity="1"
     objecttolerance="10"
     gridtolerance="10"
     guidetolerance="10"
     inkscape:pageopacity="0"
     inkscape:pageshadow="2"
     inkscape:window-width="1920"
     inkscape:window-height="1004"
     id="namedview11"
     showgrid="false"
     inkscape:zoom="1.1508772"
     inkscape:cx="533.26442"
     inkscape:cy="276.9094"
     inkscape:window-x="1680"
     inkscape:window-y="0"
     inkscape:window-maximized="1"
     inkscape:current-layer="svg2" />
  <metadata
     id="metadata2975">image/svg+xmlen<rdf:RDF>
  <cc:Work
     rdf:about="">
    <dc:format>image/svg+xml</dc:format>
    <dc:type
       rdf:resource="http://purl.org/dc/dcmitype/StillImage" />
    <dc:title></dc:title>
  </cc:Work>
</rdf:RDF>
</metadata>
  <path
     sodipodi:type="inkscape:offset"
     inkscape:radius="20.284731"
     inkscape:original="M 315.65625 210.21875 L 239.4375 394.09375 L 231.21875 404.6875 L 231.15625 404.75 L 155 504.03125 L 99.71875 504.03125 L 99.71875 529.03125 L 240.96875 529.03125 C 242.10515 532.75841 243.74785 536.28951 245.78125 539.53125 C 248.34855 544.11984 251.8182 548.10306 256.5625 551.34375 C 263.9298 556.93445 273.07465 560.25 282.96875 560.25 C 292.24585 560.25 300.8859 557.31746 308 552.34375 C 316.2654 547.02848 321.8503 539.11177 325.125 529.03125 L 455.09375 529.03125 L 455.09375 504.03125 L 386.40625 504.03125 L 370.5 429.0625 L 369.28125 423.3125 C 369.41925 420.80169 369.52255 418.78754 369.65625 416.375 L 379.5625 254.59375 L 381.375 225 L 381.34375 225 C 381.34475 224.9775 381.34275 224.96 381.34375 224.9375 L 315.65625 210.21875 z "
     style="opacity:0.42608696;color:#000000;fill:#8d8d8d;fill-opacity:1;fill-rule:nonzero;stroke:#a35151;stroke-width:0;stroke-linecap:round;stroke-linejoin:miter;stroke-miterlimit:4;stroke-opacity:1;stroke-dasharray:none;stroke-dashoffset:0;marker:none;visibility:visible;display:inline;overflow:visible;enable-background:accumulate"
     id="path3048"
     d="m 316.0625,189.9375 a 20.286759,20.286759 0 0 0 -19.15625,12.5 l -75.1875,181.40625 -6.1875,7.9375 a 20.286759,20.286759 0 0 0 -0.0937,0.125 l -0.25,0.34375 a 20.286759,20.286759 0 0 0 -0.125,0.15625 L 145,483.75 l -45.28125,0 A 20.286759,20.286759 0 0 0 79.4375,504.03125 l 0,25 a 20.286759,20.286759 0 0 0 20.28125,20.28125 l 128.34375,0 c 0.0239,0.0396 0.0385,0.0855 0.0625,0.125 l -0.0312,0 c 0.0543,0.097 0.1325,0.18437 0.1875,0.28125 0.11596,0.18908 0.1948,0.40611 0.3125,0.59375 l 0.0312,-0.0312 c 3.75715,6.43583 9.07147,12.461 15.71875,17.1875 l -0.0312,0.0312 c 0.078,0.0592 0.17167,0.0974 0.25,0.15625 0.19584,0.13767 0.36439,0.30217 0.5625,0.4375 l 0.0312,-0.0625 c 10.59849,7.78516 23.74157,12.5 37.8125,12.5 13.26792,0 25.72299,-4.18133 35.96875,-11.15625 l 0.0312,0.0312 c 0.13209,-0.085 0.24378,-0.1953 0.375,-0.28125 0.0878,-0.0607 0.19379,-0.0951 0.28125,-0.15625 l 0,-0.0312 c 7.65586,-5.08135 13.64007,-11.95257 18.21875,-19.625 l 117.25,0 A 20.286759,20.286759 0 0 0 475.375,529.03125 l 0,-25 A 20.286759,20.286759 0 0 0 455.09375,483.75 l -52.25,0 -12.5,-58.90625 -0.65625,-3.125 c 0.0715,-1.33671 0.14196,-2.70492 0.21875,-4.09375 0.002,-0.0423 -0.002,-0.0825 0,-0.125 L 399.8125,255.84375 401.625,226.25 a 20.286759,20.286759 0 0 0 -0.25,-4.46875 20.286759,20.286759 0 0 0 -0.40625,-1.96875 20.286759,20.286759 0 0 0 -0.625,-1.9375 20.286759,20.286759 0 0 0 -0.71875,-1.75 20.286759,20.286759 0 0 0 -0.0625,-0.125 20.286759,20.286759 0 0 0 -0.78125,-1.40625 20.286759,20.286759 0 0 0 -0.21875,-0.34375 20.286759,20.286759 0 0 0 -0.90625,-1.34375 20.286759,20.286759 0 0 0 -0.0937,-0.0937 20.286759,20.286759 0 0 0 -0.90625,-1.09375 20.286759,20.286759 0 0 0 -0.28125,-0.375 20.286759,20.286759 0 0 0 -0.28125,-0.3125 20.286759,20.286759 0 0 0 -1.15625,-1.125 20.286759,20.286759 0 0 0 -5.0625,-3.34375 20.286759,20.286759 0 0 0 -4.09375,-1.40625 l -65.6875,-14.71875 a 20.286759,20.286759 0 0 0 -4.03125,-0.5 z" />
  <path
     style="opacity:0.928;color:#000000;fill:#ffd400;fill-opacity:1;fill-rule:nonzero;stroke:none;stroke-width:0;marker:none;visibility:visible;display:inline;overflow:visible;enable-background:accumulate"
     d="m 315.86745,210.27586 -76.20816,183.87583 -8.21875,10.59375 -0.0625,0.0625 -87.75,114.40625 96.34375,0.4375 c 2.85677,21.00574 11.85744,36.44127 42.43008,40.32839 27.07515,-1.62024 41.0194,-16.31386 45.19492,-40.01589 l 62.28125,0.28125 -20.375,-96.875 c 4.71865,-85.87361 6.91595,-112.54399 12.0733,-198.392 z"
     id="path3822"
     inkscape:connector-curvature="0"
     sodipodi:nodetypes="cccccccccccc" />
  <path
     style="fill:none;stroke:#000000;stroke-width:25;stroke-linecap:butt;stroke-linejoin:miter;stroke-opacity:1;stroke-miterlimit:4;stroke-dasharray:none"
     d="m 99.923776,516.57012 355.381084,0"
     id="path3759"
     inkscape:connector-curvature="0" />
  <path
     sodipodi:type="arc"
     style="color:#000000;fill:#fefefe;fill-opacity:1;stroke:#000000;stroke-width:25;stroke-linecap:round;stroke-linejoin:round;stroke-miterlimit:10;stroke-opacity:1;stroke-dasharray:none;stroke-dashoffset:0;marker:none;visibility:visible;display:inline;overflow:visible;enable-background:accumulate"
     id="path3759-1"
     sodipodi:cx="210.27438"
     sodipodi:cy="76.036606"
     sodipodi:rx="40.838413"
     sodipodi:ry="40.838413"
     d="m 251.1128,76.036606 a 40.838413,40.838413 0 1 1 -81.67683,0 40.838413,40.838413 0 1 1 81.67683,0 z"
     transform="matrix(0.82289092,0,0,0.82289092,110.16458,453.8318)" />
  <path
     style="opacity:0.42608696;color:#000000;fill:#000000;fill-opacity:1;fill-rule:nonzero;stroke:#a35151;stroke-width:0;stroke-linecap:round;stroke-linejoin:miter;stroke-miterlimit:4;stroke-opacity:1;stroke-dashoffset:0;marker:none;visibility:visible;display:inline;overflow:visible;enable-background:accumulate"
     d="m 360.78312,220.3469 20.80047,4.70009 -12.12325,198.21418 17.34328,81.62677 -50.44073,-0.3762 -11.14154,-91.29302 z"
     id="rect3050-45"
     inkscape:connector-curvature="0"
     sodipodi:nodetypes="ccccccc" />
</svg>

<svg width="580" height="580" viewBox="0 0 580 580" fill="none" xmlns="http://www.w3.org/2000/svg">
<g clip-path="url(#clip0)">
<path opacity="0.426087" d="M316.062 189.937C311.983 189.853 307.972 191 304.555 193.23C301.137 195.46 298.472 198.669 296.906 202.437L221.719 383.844L215.531 391.781C215.5 391.823 215.469 391.864 215.438 391.906L215.188 392.25C215.146 392.302 215.104 392.354 215.063 392.406L145 483.75H99.7188C94.3403 483.751 89.1825 485.889 85.3794 489.692C81.5762 493.495 79.439 498.653 79.4375 504.031V529.031C79.439 534.41 81.5762 539.568 85.3794 543.371C89.1825 547.174 94.3403 549.311 99.7188 549.312H228.062C228.086 549.352 228.101 549.398 228.125 549.438H228.094C228.148 549.535 228.226 549.622 228.281 549.719C228.397 549.908 228.476 550.125 228.594 550.312L228.625 550.281C232.382 556.717 237.696 562.742 244.344 567.469L244.313 567.5C244.391 567.559 244.484 567.597 244.563 567.656C244.758 567.794 244.927 567.958 245.125 568.094L245.156 568.031C255.755 575.816 268.898 580.531 282.969 580.531C296.237 580.531 308.692 576.35 318.938 569.375L318.969 569.406C319.101 569.321 319.212 569.211 319.344 569.125C319.431 569.064 319.537 569.03 319.625 568.969V568.938C327.281 563.856 333.265 556.985 337.844 549.312H455.094C460.472 549.311 465.63 547.174 469.433 543.371C473.236 539.568 475.374 534.41 475.375 529.031V504.031C475.374 498.653 473.236 493.495 469.433 489.692C465.63 485.889 460.472 483.751 455.094 483.75H402.844L390.344 424.844L389.688 421.719C389.759 420.382 389.829 419.014 389.906 417.625C389.908 417.583 389.904 417.542 389.906 417.5L399.812 255.844L401.625 226.25C401.707 224.756 401.623 223.257 401.375 221.781C401.272 221.119 401.137 220.462 400.969 219.812C400.793 219.157 400.584 218.51 400.344 217.875C400.132 217.281 399.892 216.697 399.625 216.125C399.604 216.083 399.583 216.042 399.562 216C399.321 215.521 399.06 215.052 398.781 214.594C398.709 214.478 398.637 214.364 398.562 214.25C398.278 213.79 397.976 213.342 397.656 212.906C397.625 212.875 397.594 212.844 397.563 212.813C397.273 212.437 396.971 212.073 396.656 211.719C396.564 211.593 396.47 211.468 396.375 211.344C396.282 211.239 396.189 211.134 396.094 211.031C395.723 210.641 395.338 210.266 394.938 209.906C393.427 208.544 391.721 207.417 389.875 206.563C388.565 205.949 387.192 205.478 385.781 205.156L320.094 190.438C318.77 190.136 317.42 189.969 316.063 189.938L316.062 189.937Z" fill="#8D8D8D"/>
<path opacity="0.928" d="M315.867 210.276L239.659 394.152L231.44 404.745L231.378 404.808L143.628 519.214L239.972 519.652C242.828 540.657 251.829 556.093 282.402 559.98C309.477 558.36 323.421 543.666 327.597 519.964L389.878 520.245L369.503 423.37C374.222 337.497 376.419 310.826 381.576 224.978L315.867 210.276Z" fill="#FFD400"/>
<path d="M99.9238 516.57H455.305" stroke="black" stroke-width="25"/>
<path d="M316.803 516.401C316.803 525.314 313.262 533.862 306.96 540.164C300.658 546.466 292.11 550.007 283.197 550.007C274.285 550.007 265.737 546.466 259.435 540.164C253.132 533.862 249.592 525.314 249.592 516.401C249.592 507.489 253.132 498.941 259.435 492.639C265.737 486.336 274.285 482.796 283.197 482.796C292.11 482.796 300.658 486.336 306.96 492.639C313.262 498.941 316.803 507.489 316.803 516.401V516.401Z" fill="#FEFEFE" stroke="black" stroke-width="20.5723" stroke-miterlimit="10" stroke-linecap="round" stroke-linejoin="round"/>
<path opacity="0.426087" d="M360.783 220.347L381.583 225.047L369.46 423.261L386.803 504.888L336.363 504.512L325.221 413.219L360.783 220.347Z" fill="black"/>
</g>
<defs>
<clipPath id="clip0">
<path d="M0 0H580V580H0V0Z" fill="white"/>
</clipPath>
</defs>
</svg>
